src/images/bespoke.svg

<svg height="52" viewBox="0 0 179 52" width="179" xmlns="http://www.w3.org/2000/svg"><g fill="#fffffe" fill-rule="evenodd"><path d="m.1062086 43.927619v-.2781587c.95752408-.2261587 1.61865206-.9145397 1.98667722-2.0659682.36802516-1.1530794.54997944-3.5054604.54997944-7.0546667v-27.96939683c0-1.81339682-.14819805-2.9375873-.44212419-3.36761905-.29310281-.43085714-.86778192-.67765079-1.72074405-.74450793v-.31860318c.89330493-.13123809 1.78002327-.32438095 2.66674162-.57612698.88342505-.25092064 1.76355681-.56209524 2.6445119-.93352381-.05269264 1.25790476-.09303544 2.47371428-.11773512 3.64495238-.02799296 1.17288889-.0403428 2.44069841-.0403428 3.80425397v18.61517463c.86531196-1.5236826 1.96856412-2.6660318 3.31222646-3.427873 1.34366232-.7610159 2.94090802-1.1423493 4.78844372-1.1423493 3.0808728 0 5.6142362 1.056508 7.6009134 3.1686985 1.9866772 2.1130158 2.9812508 4.8178412 2.9812508 8.1153015 0 3.1266032-1.0291531 5.7389842-3.0800495 7.8379683-2.0517197 2.0989841-4.5793198 3.1480635-7.5786837 3.1480635-1.6252386 0-3.0956926-.3309841-4.40559875-.992127-1.31072943-.6619682-2.45020779-1.6483174-3.423375-2.9606984-.17042776.6347302-.37131845 1.2339683-.60925865 1.7977143-.23464692.563746-.4972868 1.1035555-.78462636 1.6186032h-1.45810416c-.40425136 0-.84966883.0090793-1.33460579.0214603-.48823025.0123809-.99786689.0330158-1.53549649.0594285m5.56730682-10.7095238c0 3.3114921.62737176 5.8512381 1.88787852 7.6192381 1.25721347 1.7688254 3.05864316 2.6536508 5.40675896 2.6536508 2.3728154 0 4.2417575-.8963809 5.6043563-2.6833651 1.3625988-1.7869841 2.0451331-4.2590476 2.0451331-7.4104127 0-3.2850793-.6734778-5.8306031-2.0171401-7.6382222-1.3411924-1.8067936-3.2315409-2.7122539-5.6726921-2.7122539-2.2797801 0-4.05980334.8972063-5.3384232 2.6940952-1.27944318 1.7927619-1.91587148 4.2854603-1.91587148 7.4772698"/><path d="m48.562855 35.1066032.6084353.8146666c-.8126193 2.8063492-2.101119 4.9259683-3.8646759 6.356381-1.7643801 1.4312381-3.9824109 2.1468571-6.6549158 2.1468571-3.2414207 0-5.8949892-1.0523809-7.964822-3.159619-2.0731261-2.1064127-3.1080425-4.8005079-3.1080425-8.0872381 0-3.2429841 1.0225666-5.8982857 3.0676997-7.964254 2.0451331-2.0667936 4.6871751-3.1001905 7.9244792-3.1001905 2.8577524 0 5.1968117.7478096 7.0138845 2.2450794 1.8129561 1.4980953 2.8725722 3.5426032 3.1722616 6.1376508h-17.3630484c-.0246997.3978413-.0461061.7849524-.0584559 1.1613333-.0123499.3780318-.0222297.8336508-.0222297 1.3627302 0 3.1257778.7541634 5.6093968 2.2649602 7.4492063 1.5075035 1.8414604 3.5188804 2.7626032 6.0366006 2.7626032 2.1752181 0 4.0202839-.6883809 5.5335506-2.0667936 1.5173834-1.3759365 2.6543918-3.3973334 3.4143185-6.0584127m-17.0296028-5.464127h13.2727822c-.0806856-2.0783492-.6800644-3.7299683-1.7981364-4.9556825-1.1213653-1.2248889-2.586056-1.8381588-4.3965422-1.8381588-1.822836 0-3.349276.588508-4.5817898 1.768-1.2325138 1.1803175-2.0640695 2.8550476-2.4963138 5.0258413"/><path d="m51.2938157 42.496381 1.3782419-4.5900318h.1975974c.1943041 1.7102222 1.039033 3.0812064 2.5267768 4.1137778 1.4860972 1.0333968 3.3583325 1.5484444 5.6142362 1.5484444 1.927398 0 3.471951-.4762539 4.6402457-1.4295873 1.1682946-.9533333 1.748737-2.1988571 1.748737-3.7349206 0-1.2843175-.3737884-2.2252698-1.118072-2.820381-.7484001-.5975873-2.5432432-1.079619-5.3886458-1.4510476-2.8577524-.3838095-4.9366418-1.044127-6.2350214-1.9776508-1.2975563-.9335238-1.9463344-2.2145397-1.9463344-3.8422222 0-1.7886349.8743685-3.2743492 2.6231055-4.4604444 1.7520303-1.1860953 4.0046407-1.7795556 6.7570079-1.7795556 1.5083268 0 2.9195016.1172064 4.2392876.3483175 1.3164927.2327619 2.5053704.5662222 3.5682797 1.0036825l-1.1213652 3.9140318h-.2749897c-.4050747-1.4964445-1.1246586-2.6255874-2.1538117-3.3866032-1.0291532-.7618413-2.3571724-1.1423492-3.982411-1.1423492-1.7824932 0-3.247184.455619-4.3924256 1.3701587-1.1493582.9145397-1.7248607 2.0601905-1.7248607 3.4369524 0 1.1126349.4050747 1.9396825 1.2111075 2.4827936.806856.5414603 2.5918192.9739683 5.3573595 1.2909207 3.1492086.3573968 5.3293666.9566349 6.5495306 1.7977143 1.2209873.8410793 1.8294226 2.0899047 1.8294226 3.744 0 2.2665396-.9575241 4.0799365-2.8701022 5.443492-1.9158715 1.364381-4.5167473 2.0478095-7.8075674 2.0478095-1.7042776 0-3.321283-.1593015-4.847723-.4770793-1.5289099-.3186032-2.987014-.8006349-4.3776058-1.4502222"/><path d="m73.1653782 51.8935238v-.2773333c.9534075-.2517461 1.6087722-.8460318 1.9644476-1.7894603.3556753-.9393016.531043-3.1645715.531043-6.6749842v-15.7741587c0-1.1654603-.1514914-1.9273016-.4536507-2.2830476-.3005127-.3590476-.8587254-.5777778-1.672168-.6553651v-.3186032c.5384529-.0808889 1.1370083-.212127 1.8014296-.3978412.6619513-.1857143 1.6754613-.5290794 3.0372368-1.0317461l-.0979754 5.7010159c.5244564-2.0271746 1.5066802-3.5863492 2.9499645-4.68 1.4432844-1.0928254 3.2405974-1.6392381 5.3886459-1.6392381 3.0948693 0 5.6611655 1.0300952 7.7005354 3.0902857s3.0586431 4.6899048 3.0586431 7.8957461c0 3.1530158-1.0472662 5.8215238-3.1368587 8.0063492-2.0912392 2.1848254-4.671532 3.2793015-7.740055 3.2793015-1.7545002 0-3.3303395-.407746-4.7209312-1.2224127-1.3872985-.8146666-2.4156283-1.9306031-3.0858128-3.3478095v3.3775238c0 3.5632381.2033607 5.7918096.607612 6.6865397.408368.8939048 1.1962876 1.4873651 2.361289 1.7779048v.2773333c-.76075-.0387936-1.5107968-.0685079-2.2493171-.0874921-.7426369-.0214603-1.4679841-.031365-2.1752181-.031365-.4050747 0-.941881.0099047-1.6128888.031365-.6668912.0189842-1.4893904.0486985-2.4559711.0874921m12.7400926-8.5024127c2.3851653 0 4.2804537-.8980317 5.6743387-2.6924444 1.3971783-1.7935873 2.0945325-4.2408889 2.0945325-7.340254 0-3.2991111-.6734778-5.8545397-2.0237267-7.6679365-1.3543656-1.8150476-3.2381275-2.7213333-5.6644589-2.7213333-2.3604657 0-4.1676586.879873-5.4191088 2.6404444-1.2514502 1.7622222-1.8771753 4.2970159-1.8771753 7.6085079 0 3.2710477.6224318 5.7852064 1.8689421 7.5416508 1.2440403 1.7539683 3.0265335 2.6313651 5.3466564 2.6313651"/><path d="m100.598484 33.02c0-3.2041905 1.071966-5.824 3.215898-7.8569524 2.144755-2.032127 4.912765-3.0490159 8.308147-3.0490159 3.395383 0 6.148573 1.0267937 8.258749 3.080381 2.109352 2.0519365 3.167321 4.7262222 3.167321 8.0236825 0 3.3246985-1.057969 6.0105397-3.167321 8.0566985-2.110176 2.0478095-4.909473 3.0696507-8.39789 3.0696507-3.367389 0-6.10823-1.0457777-8.218405-3.1381587-2.110176-2.0948571-3.166499-4.8227936-3.166499-8.1862857m3.735415.0379683c0 3.3131428.682534 5.8784761 2.045133 7.7017777 1.365892 1.82 3.27847 2.7312381 5.743497 2.7312381 2.465851 0 4.362786-.8980317 5.694099-2.6949206 1.331312-1.7919365 1.993264-4.359746 1.993264-7.6968254 0-3.271873-.676771-5.8099683-2.033607-7.6175873-1.356012-1.8084445-3.25624-2.712254-5.694098-2.712254-2.437035 0-4.337263.9038095-5.703155 2.712254-1.362599 1.807619-2.045133 4.3341587-2.045133 7.5763175"/><path d="m125.611846 43.9680635v-.3186032c.985517-.3177778 1.658994-.944254 2.02702-1.8786032.367201-.9335238.549979-2.9706031.549979-6.1087619v-29.06387298c0-1.80101587-.148198-2.92933333-.442124-3.38660317-.293103-.45726984-.874369-.71149207-1.739681-.76514286v-.31777778c.708058-.09244444 1.486097-.25504762 2.33906-.48698412.852962-.23111112 1.900228-.5728254 3.145092-1.02266667-.03705 1.09860317-.077393 2.47701587-.114442 4.1327619-.067513 2.19803175-.098799 16.98996828-.098799 17.24336508v10.0112381l5.604356-4.7270476c1.007747-.8493334 1.742974-1.5608254 2.203211-2.1353016.456944-.5769524.685828-1.0705397.685828-1.4807619 0-.1980953-.086449-.3697778-.265933-.5166984-.176191-.1452699-.435538-.2591746-.77557-.3375873l.018936-.2773334c1.022567.0652064 1.81378.1089524 2.369523.1279365.559036.020635 1.078552.0313651 1.563489.0313651.997867 0 2.496314-.0544762 4.504398-.1593016h.117735v.2773334c-1.205344.2377143-2.333296.5967619-3.383032 1.0721904-1.04809.476254-2.280604 1.2455239-3.698365 2.3053334l-6.312414 4.7650159c1.758617.0156825 3.222484.3532698 4.396542 1.0144127 1.174058.6619682 2.376109 1.907492 3.608623 3.7365714.246997.3697778.602672.9128889 1.062909 1.6293333 2.147225 3.2966349 4.050747 5.4030476 5.703155 6.3175873v.3186032c-1.038209-.0404445-2.048426-.0718095-3.039706-.0907937-.988811-.0198095-1.961978-.031365-2.919502-.031365-.683358-1.0845715-1.584896-2.568635-2.712848-4.4497143-2.965607-4.9267937-5.135062-7.3897778-6.512481-7.3897778-.797799 0-1.369185.312-1.709217.9335238-.339209.6215238-.509637 1.6953651-.509637 3.2182222 0 2.7543492.182778 4.6106667.549979 5.5623492.368026.9549842 1.053853 1.5971429 2.06407 1.9289524v.3186032c-.670185-.0404445-1.337899-.0718095-2.005614-.0907937-.670184-.0198095-1.337075-.031365-2.00479-.031365-.997867 0-1.810486.0115555-2.440328.031365-.630665.0189842-1.2391.0503492-1.829422.0907937"/><path d="m169.368967 35.1066032.609259.8146666c-.813443 2.8063492-2.101119 4.9259683-3.8655 6.356381-1.760263 1.4312381-3.979117 2.1468571-6.654915 2.1468571-3.238128 0-5.891696-1.0523809-7.964822-3.159619-2.073126-2.1064127-3.10722-4.8005079-3.10722-8.0872381 0-3.2429841 1.021744-5.8982857 3.066877-7.964254 2.045133-2.0667936 4.687175-3.1001905 7.924479-3.1001905 2.857752 0 5.196812.7478096 7.013884 2.2450794 1.812957 1.4980953 2.872573 3.5426032 3.176379 6.1376508h-17.367165c-.027993.3978413-.046106.7849524-.058456 1.1613333-.015643.3780318-.018937.8336508-.018937 1.3627302 0 3.1257778.75087 5.6093968 2.258374 7.4492063 1.510797 1.8414604 3.522174 2.7626032 6.037424 2.7626032 2.179335 0 4.022754-.6883809 5.536021-2.0667936 1.514913-1.3759365 2.654391-3.3973334 3.414318-6.0584127m-17.032896-5.464127h13.276075c-.077392-2.0783492-.675947-3.7299683-1.798136-4.9556825-1.121365-1.2248889-2.588526-1.8381588-4.396542-1.8381588-1.822836 0-3.349276.588508-4.58179 1.768-1.232514 1.1803175-2.06407 2.8550476-2.499607 5.0258413"/><path d="m174.923924 42.3981587c0-.5777777.198421-1.0614603.583736-1.4543492.393548-.3937143.866135-.5934603 1.425171-.5934603.540923 0 1.016803.2063492 1.420231.6132698.402605.4077461.603496.8848254.603496 1.4345397s-.200891 1.0234921-.603496 1.4229842c-.403428.399492-.879308.6025396-1.420231.6025396-.583736 0-1.065379-.1931428-1.442461-.5728254-.373789-.3805079-.566446-.8625396-.566446-1.4526984"/></g></svg>

<?xml version="1.0" encoding="UTF-8"?>
<svg width="179px" height="52px" viewBox="0 0 179 52" version="1.1" xmlns="http://www.w3.org/2000/svg" xmlns:xlink="http://www.w3.org/1999/xlink">
    <!-- Generator: Sketch 51.3 (57544) - http://www.bohemiancoding.com/sketch -->
    <title>logo / bespoke.</title>
    <desc>Created with Sketch.</desc>
    <defs></defs>
    <g id="Landing-page" stroke="none" stroke-width="1" fill="none" fill-rule="evenodd">
        <g id="Desktop-—-About" transform="translate(-129.000000, -29.000000)" fill="#FFFFFE">
            <g id="HEADER">
                <g id="logo-/-bespoke." transform="translate(129.000000, 29.000000)">
                    <g id="bespoke_rev_RGB">
                        <path d="M0.106208604,43.927619 L0.106208604,43.6494603 C1.06373268,43.4233016 1.72486066,42.7349206 2.09288582,41.5834921 C2.46091098,40.4304127 2.64286526,38.0780317 2.64286526,34.5288254 L2.64286526,6.55942857 C2.64286526,4.74603175 2.49466721,3.62184127 2.20074107,3.19180952 C1.90763826,2.76095238 1.33295915,2.51415873 0.479997024,2.44730159 L0.479997024,2.12869841 C1.37330195,1.99746032 2.26002029,1.80431746 3.14673864,1.55257143 C4.03016369,1.30165079 4.91029545,0.99047619 5.79125054,0.619047619 C5.7385579,1.87695238 5.6982151,3.0927619 5.67351542,4.264 C5.64552246,5.43688889 5.63317262,6.70469841 5.63317262,8.06825397 L5.63317262,26.6834286 C6.49848458,25.159746 7.60173674,24.0173968 8.94539908,23.2555556 C10.2890614,22.4945397 11.8863071,22.1132063 13.7338428,22.1132063 C16.8147156,22.1132063 19.348079,23.1697143 21.3347562,25.2819048 C23.3214334,27.3949206 24.316007,30.099746 24.316007,33.3972063 C24.316007,36.5238095 23.2868539,39.1361905 21.2359575,41.2351746 C19.1842378,43.3341587 16.6566377,44.3832381 13.6572738,44.3832381 C12.0320352,44.3832381 10.5615812,44.052254 9.25167505,43.3911111 C7.94094562,42.7291429 6.80146726,41.7427937 5.82830005,40.4304127 C5.65787229,41.0651429 5.4569816,41.664381 5.2190414,42.228127 C4.98439448,42.791873 4.7217546,43.3316825 4.43441504,43.8467302 L2.97631088,43.8467302 C2.57205952,43.8467302 2.12664205,43.8558095 1.64170509,43.8681905 C1.15347484,43.8805714 0.643838203,43.9012063 0.106208604,43.927619 M5.67351542,33.2180952 C5.67351542,36.5295873 6.30088718,39.0693333 7.56139394,40.8373333 C8.81860741,42.6061587 10.6200371,43.4909841 12.9681529,43.4909841 C15.3409683,43.4909841 17.2099104,42.5946032 18.5725092,40.807619 C19.935108,39.0206349 20.6176423,36.5485714 20.6176423,33.3972063 C20.6176423,30.112127 19.9441645,27.5666032 18.6005022,25.7589841 C17.2593098,23.9521905 15.3689613,23.0467302 12.9278101,23.0467302 C10.64803,23.0467302 8.86800676,23.9439365 7.5893869,25.7408254 C6.30994372,27.5335873 5.67351542,30.0262857 5.67351542,33.2180952" id="Fill-1"></path>
                        <path d="M48.562855,35.1066032 L49.1712903,35.9212698 C48.358671,38.727619 47.0701713,40.8472381 45.3066144,42.2776508 C43.5422343,43.7088889 41.3242035,44.4245079 38.6516986,44.4245079 C35.4102779,44.4245079 32.7567094,43.372127 30.6868766,41.2648889 C28.6137505,39.1584762 27.5788341,36.464381 27.5788341,33.1776508 C27.5788341,29.9346667 28.6014007,27.2793651 30.6465338,25.2133968 C32.6916669,23.1466032 35.3337089,22.1132063 38.571013,22.1132063 C41.4287654,22.1132063 43.7678247,22.8610159 45.5848975,24.3582857 C47.3978536,25.856381 48.4574697,27.9008889 48.7571591,30.4959365 L31.3941107,30.4959365 C31.369411,30.8937778 31.3480046,31.2808889 31.3356548,31.6572698 C31.3233049,32.0353016 31.3134251,32.4909206 31.3134251,33.02 C31.3134251,36.1457778 32.0675885,38.6293968 33.5783853,40.4692063 C35.0858888,42.3106667 37.0972657,43.2318095 39.6149859,43.2318095 C41.790204,43.2318095 43.6352698,42.5434286 45.1485365,41.1650159 C46.6659199,39.7890794 47.8029283,37.7676825 48.562855,35.1066032 M31.5332522,29.6424762 L44.8060344,29.6424762 C44.7253488,27.564127 44.12597,25.9125079 43.007898,24.6867937 C41.8865327,23.4619048 40.421842,22.8486349 38.6113558,22.8486349 C36.7885198,22.8486349 35.2620798,23.4371429 34.029566,24.6166349 C32.7970522,25.7969524 31.9654965,27.4716825 31.5332522,29.6424762" id="Fill-2"></path>
                        <path d="M51.2938157,42.496381 L52.6720576,37.9063492 L52.869655,37.9063492 C53.0639591,39.6165714 53.908688,40.9875556 55.3964318,42.020127 C56.882529,43.0535238 58.7547643,43.5685714 61.010668,43.5685714 C62.938066,43.5685714 64.482619,43.0923175 65.6509137,42.1389841 C66.8192083,41.1856508 67.3996507,39.940127 67.3996507,38.4040635 C67.3996507,37.119746 67.0258623,36.1787937 66.2815787,35.5836825 C65.5331786,34.9860952 63.7383355,34.5040635 60.8929329,34.1326349 C58.0351805,33.7488254 55.9562911,33.0885079 54.6579115,32.1549841 C53.3603552,31.2214603 52.7115771,29.9404444 52.7115771,28.3127619 C52.7115771,26.524127 53.5859456,25.0384127 55.3346826,23.8523175 C57.0867129,22.6662222 59.3393233,22.0727619 62.0916905,22.0727619 C63.6000173,22.0727619 65.0111921,22.1899683 66.3309781,22.4210794 C67.6474708,22.6538413 68.8363485,22.9873016 69.8992578,23.4247619 L68.7778926,27.3387937 L68.5029029,27.3387937 C68.0978282,25.8423492 67.3782443,24.7132063 66.3490912,23.9521905 C65.319938,23.1903492 63.9919188,22.8098413 62.3666802,22.8098413 C60.584187,22.8098413 59.1194962,23.2654603 57.9742546,24.18 C56.8248964,25.0945397 56.2493939,26.2401905 56.2493939,27.6169524 C56.2493939,28.7295873 56.6544686,29.5566349 57.4605014,30.099746 C58.2673574,30.6412063 60.0523206,31.0737143 62.8178609,31.3906667 C65.9670695,31.7480635 68.1472275,32.3473016 69.3673915,33.188381 C70.5883788,34.0294603 71.1968141,35.2782857 71.1968141,36.932381 C71.1968141,39.1989206 70.23929,41.0123175 68.3267119,42.375873 C66.4108404,43.740254 63.8099646,44.4236825 60.5191445,44.4236825 C58.8148669,44.4236825 57.1978615,44.264381 55.6714215,43.9466032 C54.1425116,43.628 52.6844075,43.1459683 51.2938157,42.496381" id="Fill-3"></path>
                        <path d="M73.1653782,51.8935238 L73.1653782,51.6161905 C74.1187857,51.3644444 74.7741504,50.7701587 75.1298258,49.8267302 C75.4855011,48.8874286 75.6608688,46.6621587 75.6608688,43.151746 L75.6608688,27.3775873 C75.6608688,26.212127 75.5093774,25.4502857 75.2072181,25.0945397 C74.9067054,24.7354921 74.3484927,24.5167619 73.5350501,24.4391746 L73.5350501,24.1205714 C74.073503,24.0396825 74.6720584,23.9084444 75.3364797,23.7227302 C75.998431,23.5370159 77.011941,23.1936508 78.3737165,22.6909841 L78.2757411,28.392 C78.8001975,26.3648254 79.7824213,24.8056508 81.2257056,23.712 C82.66899,22.6191746 84.466303,22.0727619 86.6143515,22.0727619 C89.7092208,22.0727619 92.275517,23.1028571 94.3148869,25.1630476 C96.3542568,27.2232381 97.37353,29.8529524 97.37353,33.0587937 C97.37353,36.2118095 96.3262638,38.8803175 94.2366713,41.0651429 C92.1454321,43.2499683 89.5651393,44.3444444 86.4966163,44.3444444 C84.7421161,44.3444444 83.1662768,43.9366984 81.7756851,43.1220317 C80.3883866,42.3073651 79.3600568,41.1914286 78.6898723,39.7742222 L78.6898723,43.151746 C78.6898723,46.7149841 78.893233,48.9435556 79.2974843,49.8382857 C79.7058523,50.7321905 80.4937719,51.3256508 81.6587733,51.6161905 L81.6587733,51.8935238 C80.8980233,51.8547302 80.1479765,51.8250159 79.4094562,51.8060317 C78.6668193,51.7845714 77.9414721,51.7746667 77.2342381,51.7746667 C76.8291634,51.7746667 76.2923571,51.7845714 75.6213493,51.8060317 C74.9544581,51.8250159 74.1319589,51.8547302 73.1653782,51.8935238 M85.9054708,43.3911111 C88.2906361,43.3911111 90.1859245,42.4930794 91.5798095,40.6986667 C92.9769878,38.9050794 93.674342,36.4577778 93.674342,33.3584127 C93.674342,30.0593016 93.0008642,27.503873 91.6506153,25.6904762 C90.2962497,23.8754286 88.4124878,22.9691429 85.9861564,22.9691429 C83.6256907,22.9691429 81.8184978,23.8490159 80.5670476,25.6095873 C79.3155974,27.3718095 78.6898723,29.9066032 78.6898723,33.2180952 C78.6898723,36.4891429 79.3123041,39.0033016 80.5588144,40.759746 C81.8028547,42.5137143 83.5853479,43.3911111 85.9054708,43.3911111" id="Fill-4"></path>
                        <path d="M100.598484,33.02 C100.598484,29.8158095 101.67045,27.196 103.814382,25.1630476 C105.959137,23.1309206 108.727147,22.1140317 112.122529,22.1140317 C115.517912,22.1140317 118.271102,23.1408254 120.381278,25.1944127 C122.49063,27.2463492 123.548599,29.9206349 123.548599,33.2180952 C123.548599,36.5427937 122.49063,39.2286349 120.381278,41.2747937 C118.271102,43.3226032 115.471805,44.3444444 111.983388,44.3444444 C108.615999,44.3444444 105.875158,43.2986667 103.764983,41.2062857 C101.654807,39.1114286 100.598484,36.3834921 100.598484,33.02 M104.333899,33.0579683 C104.333899,36.3711111 105.016433,38.9364444 106.379032,40.759746 C107.744924,42.579746 109.657502,43.4909841 112.122529,43.4909841 C114.58838,43.4909841 116.485315,42.5929524 117.816628,40.7960635 C119.14794,39.004127 119.809892,36.4363175 119.809892,33.0992381 C119.809892,29.8273651 119.133121,27.2892698 117.776285,25.4816508 C116.420273,23.6732063 114.520045,22.7693968 112.082187,22.7693968 C109.645152,22.7693968 107.744924,23.6732063 106.379032,25.4816508 C105.016433,27.2892698 104.333899,29.8158095 104.333899,33.0579683" id="Fill-5"></path>
                        <path d="M125.611846,43.9680635 L125.611846,43.6494603 C126.597363,43.3316825 127.27084,42.7052063 127.638866,41.7708571 C128.006067,40.8373333 128.188845,38.800254 128.188845,35.6620952 L128.188845,6.59822222 C128.188845,4.79720635 128.040647,3.66888889 127.746721,3.21161905 C127.453618,2.75434921 126.872352,2.50012698 126.00704,2.44647619 L126.00704,2.12869841 C126.715098,2.03625397 127.493137,1.87365079 128.3461,1.64171429 C129.199062,1.41060317 130.246328,1.06888889 131.491192,0.619047619 C131.454142,1.71765079 131.413799,3.09606349 131.37675,4.75180952 C131.309237,6.94984127 131.277951,21.7417778 131.277951,21.9951746 L131.277951,32.0064127 L136.882307,27.2793651 C137.890054,26.4300317 138.625281,25.7185397 139.085518,25.1440635 C139.542462,24.5671111 139.771346,24.0735238 139.771346,23.6633016 C139.771346,23.4652063 139.684897,23.2935238 139.505413,23.1466032 C139.329222,23.0013333 139.069875,22.8874286 138.729843,22.8090159 L138.748779,22.5316825 C139.771346,22.5968889 140.562559,22.6406349 141.118302,22.659619 C141.677338,22.680254 142.196854,22.6909841 142.681791,22.6909841 C143.679658,22.6909841 145.178105,22.6365079 147.186189,22.5316825 L147.303924,22.5316825 L147.303924,22.8090159 C146.09858,23.0467302 144.970628,23.4057778 143.920892,23.8812063 C142.872802,24.3574603 141.640288,25.1267302 140.222527,26.1865397 L133.910113,30.9515556 C135.66873,30.9672381 137.132597,31.3048254 138.306655,31.9659683 C139.480713,32.6279365 140.682764,33.8734603 141.915278,35.7025397 C142.162275,36.0723175 142.51795,36.6154286 142.978187,37.331873 C145.125412,40.6285079 147.028934,42.7349206 148.681342,43.6494603 L148.681342,43.9680635 C147.643133,43.927619 146.632916,43.896254 145.641636,43.8772698 C144.652825,43.8574603 143.679658,43.8459048 142.722134,43.8459048 C142.038776,42.7613333 141.137238,41.2772698 140.009286,39.3961905 C137.043679,34.4693968 134.874224,32.0064127 133.496805,32.0064127 C132.699006,32.0064127 132.12762,32.3184127 131.787588,32.9399365 C131.448379,33.5614603 131.277951,34.6353016 131.277951,36.1581587 C131.277951,38.9125079 131.460729,40.7688254 131.82793,41.7205079 C132.195956,42.6754921 132.881783,43.3176508 133.892,43.6494603 L133.892,43.9680635 C133.221815,43.927619 132.554101,43.896254 131.886386,43.8772698 C131.216202,43.8574603 130.549311,43.8459048 129.881596,43.8459048 C128.883729,43.8459048 128.07111,43.8574603 127.441268,43.8772698 C126.810603,43.896254 126.202168,43.927619 125.611846,43.9680635" id="Fill-6"></path>
                        <path d="M169.368967,35.1066032 L169.978226,35.9212698 C169.164783,38.727619 167.877107,40.8472381 166.112726,42.2776508 C164.352463,43.7088889 162.133609,44.4245079 159.457811,44.4245079 C156.219683,44.4245079 153.566115,43.372127 151.492989,41.2648889 C149.419863,39.1584762 148.385769,36.464381 148.385769,33.1776508 C148.385769,29.9346667 149.407513,27.2793651 151.452646,25.2133968 C153.497779,23.1466032 156.139821,22.1132063 159.377125,22.1132063 C162.234877,22.1132063 164.573937,22.8610159 166.391009,24.3582857 C168.203966,25.856381 169.263582,27.9008889 169.567388,30.4959365 L152.200223,30.4959365 C152.17223,30.8937778 152.154117,31.2808889 152.141767,31.6572698 C152.126124,32.0353016 152.12283,32.4909206 152.12283,33.02 C152.12283,36.1457778 152.8737,38.6293968 154.381204,40.4692063 C155.892001,42.3106667 157.903378,43.2318095 160.418628,43.2318095 C162.597963,43.2318095 164.441382,42.5434286 165.954649,41.1650159 C167.469562,39.7890794 168.60904,37.7676825 169.368967,35.1066032 M152.336071,29.6424762 L165.612146,29.6424762 C165.534754,27.564127 164.936199,25.9125079 163.81401,24.6867937 C162.692645,23.4619048 161.225484,22.8486349 159.417468,22.8486349 C157.594632,22.8486349 156.068192,23.4371429 154.835678,24.6166349 C153.603164,25.7969524 152.771608,27.4716825 152.336071,29.6424762" id="Fill-7"></path>
                        <path d="M174.923924,42.3981587 C174.923924,41.820381 175.122345,41.3366984 175.50766,40.9438095 C175.901208,40.5500952 176.373795,40.3503492 176.932831,40.3503492 C177.473754,40.3503492 177.949634,40.5566984 178.353062,40.963619 C178.755667,41.3713651 178.956558,41.8484444 178.956558,42.3981587 C178.956558,42.947873 178.755667,43.4216508 178.353062,43.8211429 C177.949634,44.2206349 177.473754,44.4236825 176.932831,44.4236825 C176.349095,44.4236825 175.867452,44.2305397 175.49037,43.8508571 C175.116581,43.4703492 174.923924,42.9883175 174.923924,42.3981587" id="Fill-8"></path>
                    </g>
                </g>
            </g>
        </g>
    </g>
</svg>
